vibrance.CUBE
#Created by: Adobe Photoshop Export Color Lookup Plugin
TITLE "vibrance"
#LUT size
LUT_3D_SIZE 6
#data domain
DOMAIN_MIN 0.0 0.0 0.0
DOMAIN_MAX 1.0 1.0 1.0
#LUT data points
0.000000 0.000000 0.000000
0.218048 0.000000 0.000000
0.432159 0.000000 0.000000
0.646271 0.000000 0.000000
0.860382 0.000000 0.000000
1.000000 0.000000 0.000000
0.000000 0.207550 0.000000
0.200012 0.200012 0.000000
0.424408 0.175323 0.000000
0.641663 0.115295 0.000000
0.857208 0.000000 0.000000
1.000000 0.000000 0.000000
0.000000 0.413361 0.000000
0.130188 0.410095 0.000000
0.399994 0.399994 0.000000
0.627502 0.380341 0.000000
0.847565 0.347443 0.000000
1.000000 0.294250 0.000000
0.000000 0.619263 0.000000
0.000000 0.617279 0.000000
0.348877 0.611328 0.000000
0.600006 0.600006 0.000000
0.829254 0.582062 0.000000
1.000000 0.555908 0.000000
0.000000 0.825104 0.000000
0.000000 0.823761 0.000000
0.245361 0.819672 0.000000
0.554291 0.811981 0.000000
0.799988 0.799988 0.000000
1.000000 0.782928 0.000000
0.000000 1.000000 0.000000
0.000000 1.000000 0.000000
0.000000 1.000000 0.000000
0.481445 1.000000 0.000000
0.756866 1.000000 0.000000
1.000000 1.000000 0.000000
0.000000 0.000000 0.224884
0.218048 0.000000 0.218048
0.432159 0.000000 0.195862
0.646271 0.000000 0.144928
0.860382 0.000000 0.000000
1.000000 0.000000 0.000000
0.000000 0.207550 0.207550
0.200012 0.200012 0.200012
0.432251 0.146698 0.146698
0.647400 0.013153 0.013153
0.860321 0.000000 0.000000
1.000000 0.000000 0.000000
0.000000 0.413361 0.141663
0.018341 0.418762 0.018341
0.407318 0.407318 0.000000
0.632660 0.371246 0.000000
0.850464 0.329193 0.000000
1.000000 0.266937 0.000000
0.000000 0.619263 0.000000
0.000000 0.622559 0.000000
0.333801 0.616272 0.000000
0.604370 0.604370 0.000000
0.831726 0.577484 0.000000
1.000000 0.546539 0.000000
0.000000 0.825104 0.000000
0.000000 0.826263 0.000000
0.208832 0.822083 0.000000
0.547913 0.814178 0.000000
0.801880 0.801880 0.000000
1.000000 0.779358 0.000000
0.000000 1.000000 0.000000
0.000000 1.000000 0.000000
0.000000 1.000000 0.000000
0.468140 1.000000 0.000000
0.752594 1.000000 0.000000
1.000000 1.000000 0.000000
0.000000 0.000000 0.444336
0.218048 0.000000 0.441345
0.432159 0.000000 0.432159
0.646271 0.000000 0.414337
0.860382 0.000000 0.385010
1.000000 0.000000 0.339050
0.000000 0.207550 0.436859
0.160309 0.160309 0.445526
0.434967 0.121582 0.434967
0.647644 0.001373 0.398499
0.860352 0.000000 0.360016
1.000000 0.000000 0.305206
0.000000 0.413361 0.413361
0.018341 0.418762 0.418762
0.399994 0.399994 0.399994
0.637207 0.359344 0.359344
0.855316 0.293610 0.293610
1.000000 0.196991 0.196991
0.000000 0.619263 0.364563
0.000000 0.622559 0.347046
0.272766 0.624084 0.272766
0.610413 0.610413 0.231964
0.835876 0.569183 0.204895
1.000000 0.526520 0.000000
0.000000 0.825104 0.268524
0.000000 0.826263 0.230225
0.000000 0.827454 0.000000
0.527863 0.819000 0.000000
0.805817 0.805817 0.000000
1.000000 0.771698 0.000000
0.000000 1.000000 0.000000
0.000000 1.000000 0.000000
0.000000 1.000000 0.000000
0.429138 1.000000 0.000000
0.740753 1.000000 0.000000
1.000000 1.000000 0.000000
0.000000 0.000000 0.663818
0.218048 0.000000 0.662048
0.432159 0.000000 0.656586
0.646271 0.000000 0.646271
0.860382 0.000000 0.630035
1.000000 0.000000 0.606506
0.000000 0.207550 0.659363
0.152435 0.152435 0.664825
0.417023 0.115143 0.659058
0.648163 0.000000 0.648163
0.860413 0.000000 0.621979
1.000000 0.000000 0.593475
0.000000 0.413361 0.645721
0.016785 0.401428 0.650452
0.351410 0.351410 0.656281
0.643494 0.322357 0.643494
0.856323 0.280731 0.598053
1.000000 0.189209 0.558350
0.000000 0.619263 0.619263
0.000000 0.622559 0.622559
0.272766 0.624084 0.624084
0.600006 0.600006 0.600006
0.836487 0.567169 0.567169
1.000000 0.515381 0.515381
0.000000 0.825104 0.575531
0.000000 0.826263 0.567810
0.000000 0.827454 0.542603
0.494568 0.822479 0.494568
0.808105 0.808105 0.466187
1.000000 0.768280 0.455231
0.000000 1.000000 0.506592
0.000000 1.000000 0.491882
0.000000 1.000000 0.447113
0.368958 1.000000 0.368958
0.724579 1.000000 0.330780
1.000000 1.000000 0.266785
0.000000 0.000000 0.883301
0.218048 0.000000 0.882050
0.432159 0.000000 0.878326
0.646271 0.000000 0.871307
0.860382 0.000000 0.860382
1.000000 0.000000 0.844910
0.000000 0.207550 0.880219
0.149689 0.149689 0.882843
0.410706 0.112915 0.878998
0.638763 0.000000 0.871765
0.860535 0.000000 0.860535
1.000000 0.000000 0.839172
0.000000 0.413361 0.870941
0.016266 0.395325 0.873291
0.333618 0.333618 0.877930
0.612885 0.305847 0.870117
0.857971 0.256134 0.857971
1.000000 0.175934 0.822601
0.000000 0.619263 0.853241
0.000000 0.613495 0.855164
0.258423 0.594330 0.858490
0.557129 0.557129 0.856659
0.843048 0.532928 0.843048
1.000000 0.500977 0.796631
0.000000 0.825104 0.825104
0.000000 0.826263 0.826263
0.000000 0.827454 0.827454
0.494568 0.822479 0.822479
0.799988 0.799988 0.799988
1.000000 0.772736 0.772736
0.000000 1.000000 0.783813
0.000000 1.000000 0.778656
0.000000 1.000000 0.763611
0.368958 1.000000 0.739624
0.720764 1.000000 0.720764
1.000000 1.000000 0.698761
0.000000 0.000000 1.000000
0.218048 0.000000 1.000000
0.432159 0.000000 1.000000
0.646271 0.000000 1.000000
0.860382 0.000000 1.000000
1.000000 0.000000 1.000000
0.000000 0.207550 1.000000
0.148407 0.148407 1.000000
0.407837 0.111877 1.000000
0.634521 0.000000 1.000000
0.854919 0.000000 1.000000
1.000000 0.000000 1.000000
0.000000 0.413361 1.000000
0.016022 0.392548 1.000000
0.325256 0.325256 1.000000
0.598541 0.298065 1.000000
0.838348 0.249451 1.000000
1.000000 0.154236 1.000000
0.000000 0.619263 1.000000
0.000000 0.609406 1.000000
0.251678 0.580353 1.000000
0.533417 0.533417 1.000000
0.808289 0.510162 1.000000
1.000000 0.475464 1.000000
0.000000 0.825104 1.000000
0.000000 0.820862 1.000000
0.000000 0.808472 1.000000
0.473267 0.788483 1.000000
0.771729 0.771729 1.000000
1.000000 0.751648 1.000000
0.000000 1.000000 1.000000
0.000000 1.000000 1.000000
0.000000 1.000000 1.000000
0.368958 1.000000 1.000000
0.720764 1.000000 1.000000
1.000000 1.000000 1.000000
