vibrance.CUBE
#Created by: Adobe Photoshop Export Color Lookup Plugin
TITLE "vibrance"
#LUT size
LUT_3D_SIZE 16
#data domain
DOMAIN_MIN 0.0 0.0 0.0
DOMAIN_MAX 1.0 1.0 1.0
#LUT data points
0.000000 0.000000 0.000000
0.075256 0.000000 0.000000
0.146606 0.000000 0.000000
0.218048 0.000000 0.000000
0.289398 0.000000 0.000000
0.360748 0.000000 0.000000
0.432159 0.000000 0.000000
0.503510 0.000000 0.000000
0.574890 0.000000 0.000000
0.646271 0.000000 0.000000
0.717651 0.000000 0.000000
0.789032 0.000000 0.000000
0.860382 0.000000 0.000000
0.931763 0.000000 0.000000
1.000000 0.000000 0.000000
1.000000 0.000000 0.000000
0.000000 0.070282 0.000000
0.066681 0.066681 0.000000
0.142120 0.059662 0.000000
0.215118 0.046509 0.000000
0.287262 0.023895 0.000000
0.359131 0.000000 0.000000
0.430847 0.000000 0.000000
0.502441 0.000000 0.000000
0.573975 0.000000 0.000000
0.645508 0.000000 0.000000
0.716949 0.000000 0.000000
0.788422 0.000000 0.000000
0.859863 0.000000 0.000000
0.931305 0.000000 0.000000
1.000000 0.000000 0.000000
1.000000 0.000000 0.000000
0.000000 0.138855 0.000000
0.048004 0.136932 0.000000
0.133331 0.133331 0.000000
0.209564 0.127136 0.000000
0.283325 0.117645 0.000000
0.356140 0.103668 0.000000
0.428436 0.082947 0.000000
0.500458 0.049194 0.000000
0.572296 0.000000 0.000000
0.644043 0.000000 0.000000
0.715698 0.000000 0.000000
0.787323 0.000000 0.000000
0.858856 0.000000 0.000000
0.930389 0.000000 0.000000
1.000000 0.000000 0.000000
1.000000 0.000000 0.000000
0.000000 0.207550 0.000000
0.009125 0.206299 0.000000
0.117432 0.203949 0.000000
0.200012 0.200012 0.000000
0.276642 0.194244 0.000000
0.351074 0.186188 0.000000
0.424408 0.175323 0.000000
0.497162 0.160980 0.000000
0.569519 0.141785 0.000000
0.641663 0.115295 0.000000
0.713623 0.074890 0.000000
0.785461 0.000000 0.000000
0.857208 0.000000 0.000000
0.928925 0.000000 0.000000
1.000000 0.000000 0.000000
1.000000 0.000000 0.000000
0.000000 0.276123 0.000000
0.000000 0.275238 0.000000
0.090088 0.273560 0.000000
0.185364 0.270752 0.000000
0.266663 0.266663 0.000000
0.343628 0.261078 0.000000
0.418518 0.253784 0.000000
0.492340 0.244446 0.000000
0.565460 0.232758 0.000000
0.638214 0.218109 0.000000
0.710602 0.199738 0.000000
0.782806 0.176239 0.000000
0.854828 0.145081 0.000000
0.926788 0.099243 0.000000
0.998627 0.005249 0.000000
1.000000 0.000000 0.000000
0.000000 0.344757 0.000000
0.000000 0.344055 0.000000
0.034515 0.342773 0.000000
0.163483 0.340637 0.000000
0.252594 0.337555 0.000000
0.333344 0.333344 0.000000
0.410522 0.327881 0.000000
0.485809 0.321045 0.000000
0.559998 0.312653 0.000000
0.633514 0.302429 0.000000
0.706543 0.290100 0.000000
0.779236 0.275330 0.000000
0.851654 0.257446 0.000000
0.923920 0.235687 0.000000
0.996033 0.208527 0.000000
1.000000 0.173279 0.000000
0.000000 0.413361 0.000000
0.000000 0.412811 0.000000
0.000000 0.411804 0.000000
0.130188 0.410095 0.000000
0.233276 0.407623 0.000000
0.319672 0.404297 0.000000
0.399994 0.399994 0.000000
0.477356 0.394653 0.000000
0.552948 0.388123 0.000000
0.627502 0.380341 0.000000
0.701324 0.371063 0.000000
0.774628 0.360168 0.000000
0.847565 0.347443 0.000000
0.920258 0.332520 0.000000
0.992706 0.314972 0.000000
1.000000 0.294250 0.000000
0.000000 0.482025 0.000000
0.000000 0.481537 0.000000
0.000000 0.480713 0.000000
0.071686 0.479309 0.000000
0.206787 0.477264 0.000000
0.301880 0.474548 0.000000
0.386597 0.471039 0.000000
0.466675 0.466675 0.000000
0.544128 0.461395 0.000000
0.620026 0.455139 0.000000
0.694855 0.447754 0.000000
0.768951 0.439148 0.000000
0.842529 0.429230 0.000000
0.915741 0.417816 0.000000
0.988617 0.404724 0.000000
1.000000 0.389709 0.000000
0.000000 0.550629 0.000000
0.000000 0.550232 0.000000
0.000000 0.549530 0.000000
0.000000 0.548340 0.000000
0.169067 0.546631 0.000000
0.278839 0.544312 0.000000
0.369812 0.541382 0.000000
0.453491 0.537720 0.000000
0.533325 0.533325 0.000000
0.610901 0.528107 0.000000
0.687012 0.522003 0.000000
0.762085 0.514954 0.000000
0.836456 0.506866 0.000000
0.910309 0.497650 0.000000
0.983704 0.487183 0.000000
1.000000 0.475342 0.000000
0.000000 0.619263 0.000000
0.000000 0.618927 0.000000
0.000000 0.618317 0.000000
0.000000 0.617279 0.000000
0.108490 0.615814 0.000000
0.248596 0.613831 0.000000
0.348877 0.611328 0.000000
0.437408 0.608215 0.000000
0.520294 0.604462 0.000000
0.600006 0.600006 0.000000
0.677643 0.594818 0.000000
0.753937 0.588867 0.000000
0.829254 0.582062 0.000000
0.903870 0.574341 0.000000
0.977905 0.565674 0.000000
1.000000 0.555908 0.000000
0.000000 0.687866 0.000000
0.000000 0.687592 0.000000
0.000000 0.687042 0.000000
0.000000 0.686157 0.000000
0.000000 0.684875 0.000000
0.207428 0.683167 0.000000
0.322662 0.680939 0.000000
0.417908 0.678253 0.000000
0.504761 0.674988 0.000000
0.587097 0.671143 0.000000
0.666656 0.666656 0.000000
0.744415 0.661530 0.000000
0.820831 0.655670 0.000000
0.896362 0.649078 0.000000
0.971130 0.641663 0.000000
1.000000 0.633392 0.000000
0.000000 0.756500 0.000000
0.000000 0.756256 0.000000
0.000000 0.755768 0.000000
0.000000 0.755005 0.000000
0.000000 0.753845 0.000000
0.145386 0.752350 0.000000
0.289337 0.750397 0.000000
0.394226 0.748016 0.000000
0.486267 0.745148 0.000000
0.571960 0.741760 0.000000
0.653870 0.737823 0.000000
0.733337 0.733337 0.000000
0.811096 0.728210 0.000000
0.887695 0.722473 0.000000
0.963379 0.716034 0.000000
1.000000 0.708862 0.000000
0.000000 0.825104 0.000000
0.000000 0.824890 0.000000
0.000000 0.824463 0.000000
0.000000 0.823761 0.000000
0.000000 0.822754 0.000000
0.000000 0.821411 0.000000
0.245361 0.819672 0.000000
0.365326 0.817535 0.000000
0.464386 0.815002 0.000000
0.554291 0.811981 0.000000
0.639038 0.808502 0.000000
0.720612 0.804504 0.000000
0.799988 0.799988 0.000000
0.877838 0.794891 0.000000
0.954529 0.789215 0.000000
1.000000 0.782928 0.000000
0.000000 0.893768 0.000000
0.000000 0.893555 0.000000
0.000000 0.893158 0.000000
0.000000 0.892548 0.000000
0.000000 0.891632 0.000000
0.000000 0.890411 0.000000
0.182129 0.888855 0.000000
0.329346 0.886963 0.000000
0.438293 0.884674 0.000000
0.533691 0.881958 0.000000
0.621979 0.878845 0.000000
0.706085 0.875275 0.000000
0.787323 0.871216 0.000000
0.866669 0.866669 0.000000
0.944550 0.861603 0.000000
1.000000 0.855988 0.000000
0.000000 0.962372 0.000000
0.000000 0.962189 0.000000
0.000000 0.961823 0.000000
0.000000 0.961273 0.000000
0.000000 0.960449 0.000000
0.000000 0.959351 0.000000
0.054260 0.957947 0.000000
0.283081 0.956207 0.000000
0.407013 0.954132 0.000000
0.509644 0.951691 0.000000
0.602386 0.948853 0.000000
0.689514 0.945618 0.000000
0.773010 0.941986 0.000000
0.854065 0.937897 0.000000
0.933319 0.933319 0.000000
1.000000 0.928284 0.000000
0.000000 1.000000 0.000000
0.000000 1.000000 0.000000
0.000000 1.000000 0.000000
0.000000 1.000000 0.000000
0.000000 1.000000 0.000000
0.000000 1.000000 0.000000
0.000000 1.000000 0.000000
0.218964 1.000000 0.000000
0.368774 1.000000 0.000000
0.481445 1.000000 0.000000
0.579834 1.000000 0.000000
0.670715 1.000000 0.000000
0.756866 1.000000 0.000000
0.839966 1.000000 0.000000
0.920776 1.000000 0.000000
1.000000 1.000000 0.000000
0.000000 0.000000 0.078491
0.075256 0.000000 0.075256
0.146606 0.000000 0.068970
0.218048 0.000000 0.057251
0.289398 0.000000 0.036835
0.360748 0.000000 0.006012
0.432159 0.000000 0.000000
0.503510 0.000000 0.000000
0.574890 0.000000 0.000000
0.646271 0.000000 0.000000
0.717651 0.000000 0.000000
0.789032 0.000000 0.000000
0.860382 0.000000 0.000000
0.931763 0.000000 0.000000
1.000000 0.000000 0.000000
1.000000 0.000000 0.000000
0.000000 0.070282 0.070282
0.066681 0.066681 0.066681
0.143829 0.056183 0.056183
0.218262 0.030762 0.030762
0.290680 0.000000 0.000000
0.361969 0.000000 0.000000
0.433136 0.000000 0.000000
0.504303 0.000000 0.000000
0.575500 0.000000 0.000000
0.646729 0.000000 0.000000
0.717926 0.000000 0.000000
0.789185 0.000000 0.000000
0.860443 0.000000 0.000000
0.931732 0.000000 0.000000
1.000000 0.000000 0.000000
1.000000 0.000000 0.000000
0.000000 0.138855 0.052429
0.037842 0.139069 0.037842
0.135162 0.135162 0.027130
0.212433 0.124542 0.005280
0.286560 0.109528 0.000000
0.358856 0.091370 0.000000
0.430664 0.065216 0.000000
0.502289 0.020294 0.000000
0.573792 0.000000 0.000000
0.645264 0.000000 0.000000
0.716675 0.000000 0.000000
0.788086 0.000000 0.000000
0.859436 0.000000 0.000000
0.930847 0.000000 0.000000
1.000000 0.000000 0.000000
1.000000 0.000000 0.000000
0.000000 0.207550 0.014496
0.000000 0.209473 0.000000
0.112152 0.207001 0.000000
0.202789 0.202789 0.000000
0.279633 0.192902 0.000000
0.353638 0.182007 0.000000
0.426575 0.169128 0.000000
0.498932 0.152832 0.000000
0.570984 0.131561 0.000000
0.642853 0.101715 0.000000
0.714569 0.052765 0.000000
0.786224 0.000000 0.000000
0.857788 0.000000 0.000000
0.929352 0.000000 0.000000
1.000000 0.000000 0.000000
1.000000 0.000000 0.000000
0.000000 0.276123 0.000000
0.000000 0.278442 0.000000
0.074432 0.276672 0.000000
0.182800 0.273743 0.000000
0.269440 0.269440 0.000000
0.346039 0.260590 0.000000
0.420563 0.251434 0.000000
0.494049 0.240692 0.000000
0.566895 0.227905 0.000000
0.639343 0.212219 0.000000
0.711548 0.192688 0.000000
0.783569 0.167755 0.000000
0.855408 0.134125 0.000000
0.927216 0.082428 0.000000
0.998901 0.000000 0.000000
1.000000 0.000000 0.000000
0.000000 0.344757 0.000000
0.000000 0.346588 0.000000
0.002777 0.345276 0.000000
0.156921 0.343079 0.000000
0.251648 0.339874 0.000000
0.335541 0.335541 0.000000
0.412445 0.327789 0.000000
0.487427 0.319611 0.000000
0.561371 0.310181 0.000000
0.634644 0.299164 0.000000
0.707428 0.286163 0.000000
0.779968 0.270721 0.000000
0.852203 0.252167 0.000000
0.924347 0.229523 0.000000
0.996307 0.201233 0.000000
1.000000 0.164124 0.000000
0.000000 0.413361 0.000000
0.000000 0.414825 0.000000
0.000000 0.413788 0.000000
0.119171 0.412048 0.000000
0.229797 0.409515 0.000000
0.319336 0.406097 0.000000
0.401703 0.401703 0.000000
0.478882 0.394745 0.000000
0.554230 0.387177 0.000000
0.628571 0.378601 0.000000
0.702179 0.368744 0.000000
0.775330 0.357361 0.000000
0.848114 0.344116 0.000000
0.920654 0.328766 0.000000
0.992981 0.310791 0.000000
1.000000 0.289551 0.000000
0.000000 0.482025 0.000000
0.000000 0.483154 0.000000
0.000000 0.482300 0.000000
0.048309 0.480865 0.000000
0.201080 0.478790 0.000000
0.299805 0.476013 0.000000
0.386536 0.472473 0.000000
0.468048 0.468048 0.000000
0.545319 0.461548 0.000000
0.621033 0.454437 0.000000
0.695679 0.446442 0.000000
0.769623 0.437378 0.000000
0.843048 0.427063 0.000000
0.916138 0.415283 0.000000
0.988892 0.401886 0.000000
1.000000 0.386536 0.000000
0.000000 0.550629 0.000000
0.000000 0.551514 0.000000
0.000000 0.550781 0.000000
0.000000 0.549591 0.000000
0.160583 0.547852 0.000000
0.275330 0.545532 0.000000
0.368469 0.542542 0.000000
0.453522 0.538849 0.000000
0.534393 0.534393 0.000000
0.611847 0.528259 0.000000
0.687775 0.521484 0.000000
0.762726 0.513947 0.000000
0.836945 0.505432 0.000000
0.910675 0.495880 0.000000
0.983948 0.485138 0.000000
1.000000 0.473053 0.000000
0.000000 0.619263 0.000000
0.000000 0.619934 0.000000
0.000000 0.619324 0.000000
0.000000 0.618286 0.000000
0.093353 0.616821 0.000000
0.243622 0.614807 0.000000
0.346497 0.612274 0.000000
0.436462 0.609131 0.000000
0.520355 0.605316 0.000000
0.600861 0.600861 0.000000
0.678375 0.594940 0.000000
0.754547 0.588440 0.000000
0.829712 0.581207 0.000000
0.904205 0.573181 0.000000
0.978119 0.564209 0.000000
1.000000 0.554230 0.000000
0.000000 0.687866 0.000000
0.000000 0.688385 0.000000
0.000000 0.687836 0.000000
0.000000 0.686951 0.000000
0.000000 0.685638 0.000000
0.200531 0.683929 0.000000
0.319366 0.681702 0.000000
0.416199 0.678986 0.000000
0.504059 0.675690 0.000000
0.587158 0.671814 0.000000
0.667297 0.667297 0.000000
0.744934 0.661591 0.000000
0.821259 0.655273 0.000000
0.896667 0.648315 0.000000
0.971344 0.640656 0.000000
1.000000 0.632141 0.000000
0.000000 0.756500 0.000000
0.000000 0.756866 0.000000
0.000000 0.756378 0.000000
0.000000 0.755585 0.000000
0.000000 0.754456 0.000000
0.134338 0.752930 0.000000
0.284973 0.750977 0.000000
0.391846 0.748596 0.000000
0.484955 0.745697 0.000000
0.571411 0.742310 0.000000
0.653870 0.738342 0.000000
0.733826 0.733826 0.000000
0.811493 0.728241 0.000000
0.888000 0.722076 0.000000
0.963562 0.715363 0.000000
1.000000 0.707947 0.000000
0.000000 0.825104 0.000000
0.000000 0.825348 0.000000
0.000000 0.824921 0.000000
0.000000 0.824219 0.000000
0.000000 0.823181 0.000000
0.000000 0.821838 0.000000
0.239594 0.820099 0.000000
0.362244 0.817963 0.000000
0.462524 0.815399 0.000000
0.553223 0.812378 0.000000
0.638550 0.808868 0.000000
0.720581 0.804871 0.000000
0.800323 0.800323 0.000000
0.878113 0.794830 0.000000
0.954712 0.788849 0.000000
1.000000 0.782288 0.000000
0.000000 0.893768 0.000000
0.000000 0.893860 0.000000
0.000000 0.893494 0.000000
0.000000 0.892853 0.000000
0.000000 0.891937 0.000000
0.000000 0.890717 0.000000
0.173523 0.889160 0.000000
0.325470 0.887238 0.000000
0.435974 0.884949 0.000000
0.532196 0.882233 0.000000
0.621094 0.879089 0.000000
0.705627 0.875519 0.000000
0.787231 0.871460 0.000000
0.866882 0.866882 0.000000
0.944672 0.861481 0.000000
1.000000 0.855591 0.000000
0.000000 0.962372 0.000000
0.000000 0.962372 0.000000
0.000000 0.962036 0.000000
0.000000 0.961456 0.000000
0.000000 0.960632 0.000000
0.000000 0.959534 0.000000
0.024261 0.958099 0.000000
0.278137 0.956360 0.000000
0.404144 0.954285 0.000000
0.507782 0.951843 0.000000
0.601135 0.949005 0.000000
0.688721 0.945770 0.000000
0.772583 0.942108 0.000000
0.853943 0.937988 0.000000
0.933411 0.933411 0.000000
1.000000 0.928101 0.000000
0.000000 1.000000 0.000000
0.000000 1.000000 0.000000
0.000000 1.000000 0.000000
0.000000 1.000000 0.000000
0.000000 1.000000 0.000000
0.000000 1.000000 0.000000
0.000000 1.000000 0.000000
0.211945 1.000000 0.000000
0.365295 1.000000 0.000000
0.479187 1.000000 0.000000
0.578278 1.000000 0.000000
0.669617 1.000000 0.000000
0.756134 1.000000 0.000000
0.839508 1.000000 0.000000
0.920563 1.000000 0.000000
1.000000 1.000000 0.000000
0.000000 0.000000 0.151672
0.075256 0.000000 0.149933
0.146606 0.000000 0.146606
0.218048 0.000000 0.141052
0.289398 0.000000 0.132538
0.360748 0.000000 0.120209
0.432159 0.000000 0.102570
0.503510 0.000000 0.076080
0.574890 0.000000 0.029236
0.646271 0.000000 0.000000
0.717651 0.000000 0.000000
0.789032 0.000000 0.000000
0.860382 0.000000 0.000000
0.931763 0.000000 0.000000
1.000000 0.000000 0.000000
1.000000 0.000000 0.000000
0.000000 0.070282 0.147308
0.060608 0.060608 0.148315
0.144653 0.052124 0.144653
0.218506 0.028381 0.134125
0.290771 0.000000 0.120209
0.362000 0.000000 0.103790
0.433136 0.000000 0.081055
0.504303 0.000000 0.044312
0.575500 0.000000 0.000000
0.646729 0.000000 0.000000
0.717926 0.000000 0.000000
0.789185 0.000000 0.000000
0.860443 0.000000 0.000000
0.931732 0.000000 0.000000
1.000000 0.000000 0.000000
1.000000 0.000000 0.000000
0.000000 0.138855 0.138855
0.037842 0.139069 0.139069
0.133331 0.133331 0.133331
0.213379 0.121979 0.121979
0.289398 0.099030 0.099030
0.362091 0.071167 0.071167
0.433746 0.028168 0.028168
0.505035 0.000000 0.000000
0.576141 0.000000 0.000000
0.647247 0.000000 0.000000
0.718292 0.000000 0.000000
0.789398 0.000000 0.000000
0.860474 0.000000 0.000000
0.931610 0.000000 0.000000
1.000000 0.000000 0.000000
1.000000 0.000000 0.000000
0.000000 0.207550 0.123657
0.000000 0.209473 0.116760
0.095886 0.209351 0.095886
0.204620 0.204620 0.085052
0.282166 0.190826 0.074219
0.356689 0.175812 0.036224
0.429535 0.158966 0.000000
0.501617 0.138733 0.000000
0.573273 0.112457 0.000000
0.644806 0.073792 0.000000
0.716187 0.001526 0.000000
0.787537 0.000000 0.000000
0.858795 0.000000 0.000000
0.930115 0.000000 0.000000
1.000000 0.000000 0.000000
1.000000 0.000000 0.000000
0.000000 0.276123 0.097900
0.000000 0.278442 0.080841
0.025116 0.280518 0.025116
0.175140 0.277313 0.006195
0.272583 0.272583 0.000000
0.348999 0.259369 0.000000
0.423340 0.247589 0.000000
0.496613 0.234467 0.000000
0.569122 0.219513 0.000000
0.641266 0.201721 0.000000
0.713104 0.179840 0.000000
0.784821 0.151672 0.000000
0.856415 0.112366 0.000000
0.927948 0.042328 0.000000
0.999420 0.000000 0.000000
1.000000 0.000000 0.000000
0.000000 0.344757 0.048737
0.000000 0.346588 0.012970
0.000000 0.348877 0.000000
0.141754 0.346527 0.000000
0.248505 0.343140 0.000000
0.338531 0.338531 0.000000
0.415253 0.327209 0.000000
0.489838 0.317139 0.000000
0.563507 0.306000 0.000000
0.636475 0.293488 0.000000
0.708984 0.279236 0.000000
0.781189 0.262512 0.000000
0.853180 0.242554 0.000000
0.925079 0.218262 0.000000
0.996796 0.187592 0.000000
1.000000 0.146301 0.000000
0.000000 0.413361 0.000000
0.000000 0.414825 0.000000
0.000000 0.416901 0.000000
0.093719 0.415070 0.000000
0.222290 0.412445 0.000000
0.318024 0.408905 0.000000
0.404327 0.404327 0.000000
0.481293 0.394592 0.000000
0.556244 0.385498 0.000000
0.630341 0.375580 0.000000
0.703674 0.364624 0.000000
0.776550 0.352295 0.000000
0.849060 0.338226 0.000000
0.921387 0.322021 0.000000
0.993469 0.303131 0.000000
1.000000 0.280853 0.000000
0.000000 0.482025 0.000000
0.000000 0.483154 0.000000
0.000000 0.484894 0.000000
0.000000 0.483429 0.000000
0.189392 0.481293 0.000000
0.295441 0.478455 0.000000
0.386017 0.474792 0.000000
0.470245 0.470245 0.000000
0.547363 0.461609 0.000000
0.622711 0.453186 0.000000
0.697083 0.444183 0.000000
0.770782 0.434235 0.000000
0.843964 0.423187 0.000000
0.916809 0.410797 0.000000
0.989349 0.396759 0.000000
1.000000 0.380829 0.000000
0.000000 0.550629 0.000000
0.000000 0.551514 0.000000
0.000000 0.552948 0.000000
0.000000 0.551727 0.000000
0.142975 0.549957 0.000000
0.268402 0.547577 0.000000
0.365723 0.544525 0.000000
0.453369 0.540741 0.000000
0.536194 0.536194 0.000000
0.613464 0.528381 0.000000
0.689117 0.520508 0.000000
0.763824 0.512146 0.000000
0.837799 0.502930 0.000000
0.911316 0.492767 0.000000
0.984406 0.481537 0.000000
1.000000 0.468964 0.000000
0.000000 0.619263 0.000000
0.000000 0.619934 0.000000
0.000000 0.621063 0.000000
0.000000 0.620026 0.000000
0.056793 0.618530 0.000000
0.233978 0.616486 0.000000
0.341919 0.613892 0.000000
0.434601 0.610718 0.000000
0.520355 0.606842 0.000000
0.602295 0.602295 0.000000
0.679657 0.595062 0.000000
0.755585 0.587616 0.000000
0.830505 0.579742 0.000000
0.904816 0.571075 0.000000
0.978516 0.561615 0.000000
1.000000 0.551208 0.000000
0.000000 0.687866 0.000000
0.000000 0.688385 0.000000
0.000000 0.689240 0.000000
0.000000 0.688324 0.000000
0.000000 0.687012 0.000000
0.186951 0.685272 0.000000
0.313049 0.683014 0.000000
0.412933 0.680237 0.000000
0.502655 0.676941 0.000000
0.587158 0.673004 0.000000
0.668457 0.668457 0.000000
0.745911 0.661652 0.000000
0.822021 0.654572 0.000000
0.897247 0.647003 0.000000
0.971741 0.638824 0.000000
1.000000 0.629883 0.000000
0.000000 0.756500 0.000000
0.000000 0.756866 0.000000
0.000000 0.757477 0.000000
0.000000 0.756683 0.000000
0.000000 0.755524 0.000000
0.111053 0.753967 0.000000
0.276733 0.752014 0.000000
0.387299 0.749573 0.000000
0.482483 0.746674 0.000000
0.570312 0.743225 0.000000
0.653839 0.739258 0.000000
0.734680 0.734680 0.000000
0.812195 0.728210 0.000000
0.888519 0.721405 0.000000
0.963898 0.714142 0.000000
1.000000 0.706329 0.000000
0.000000 0.825104 0.000000
0.000000 0.825348 0.000000
0.000000 0.825714 0.000000
0.000000 0.825012 0.000000
0.000000 0.823975 0.000000
0.000000 0.822632 0.000000
0.228516 0.820862 0.000000
0.356476 0.818726 0.000000
0.459106 0.816132 0.000000
0.551239 0.813080 0.000000
0.637634 0.809570 0.000000
0.720490 0.805511 0.000000
0.800934 0.800934 0.000000
0.878571 0.794708 0.000000
0.954987 0.788147 0.000000
1.000000 0.781158 0.000000
0.000000 0.893768 0.000000
0.000000 0.893860 0.000000
0.000000 0.894043 0.000000
0.000000 0.893402 0.000000
0.000000 0.892487 0.000000
0.000000 0.891266 0.000000
0.156372 0.889679 0.000000
0.318207 0.887756 0.000000
0.431610 0.885437 0.000000
0.529449 0.882721 0.000000
0.619415 0.879547 0.000000
0.704773 0.875946 0.000000
0.787048 0.871857 0.000000
0.867279 0.867279 0.000000
0.944916 0.861237 0.000000
1.000000 0.854889 0.000000
0.000000 0.962372 0.000000
0.000000 0.962372 0.000000
0.000000 0.962372 0.000000
0.000000 0.961792 0.000000
0.000000 0.960968 0.000000
0.000000 0.959839 0.000000
0.000000 0.958435 0.000000
0.268738 0.956696 0.000000
0.398834 0.954590 0.000000
0.504303 0.952118 0.000000
0.598816 0.949280 0.000000
0.687256 0.946014 0.000000
0.771759 0.942352 0.000000
0.853638 0.938202 0.000000
0.933594 0.933594 0.000000
1.000000 0.927734 0.000000
0.000000 1.000000 0.000000
0.000000 1.000000 0.000000
0.000000 1.000000 0.000000
0.000000 1.000000 0.000000
0.000000 1.000000 0.000000
0.000000 1.000000 0.000000
0.000000 1.000000 0.000000
0.198334 1.000000 0.000000
0.358795 1.000000 0.000000
0.475006 1.000000 0.000000
0.575409 1.000000 0.000000
0.667603 1.000000 0.000000
0.754791 1.000000 0.000000
0.838684 1.000000 0.000000
0.920197 1.000000 0.000000
1.000000 1.000000 0.000000
0.000000 0.000000 0.224884
0.075256 0.000000 0.223724
0.146606 0.000000 0.221619
0.218048 0.000000 0.218048
0.289398 0.000000 0.212799
0.360748 0.000000 0.205536
0.432159 0.000000 0.195862
0.503510 0.000000 0.183197
0.574890 0.000000 0.166748
0.646271 0.000000 0.144928
0.717651 0.000000 0.114655
0.789032 0.000000 0.066742
0.860382 0.000000 0.000000
0.931763 0.000000 0.000000
1.000000 0.000000 0.000000
1.000000 0.000000 0.000000
0.000000 0.070282 0.222046
0.050873 0.050873 0.225098
0.139771 0.041412 0.222809
0.218933 0.024048 0.218933
0.290924 0.000000 0.209259
0.362030 0.000000 0.199036
0.433136 0.000000 0.187286
0.504333 0.000000 0.172729
0.575500 0.000000 0.154205
0.646729 0.000000 0.129547
0.717926 0.000000 0.094055
0.789185 0.000000 0.028625
0.860443 0.000000 0.000000
0.931732 0.000000 0.000000
1.000000 0.000000 0.000000
1.000000 0.000000 0.000000
0.000000 0.138855 0.216705
0.025879 0.134064 0.219360
0.118835 0.118835 0.220642
0.216156 0.110107 0.216156
0.290314 0.092560 0.200684
0.362396 0.067413 0.186646
0.433868 0.025513 0.171112
0.505066 0.000000 0.152618
0.576172 0.000000 0.129181
0.647247 0.000000 0.096710
0.718292 0.000000 0.041504
0.789398 0.000000 0.000000
0.860474 0.000000 0.000000
0.931610 0.000000 0.000000
1.000000 0.000000 0.000000
1.000000 0.000000 0.000000
0.000000 0.207550 0.207550
0.000000 0.209473 0.209473
0.095886 0.209351 0.209351
0.200012 0.200012 0.200012
0.282104 0.188568 0.188568
0.358521 0.169739 0.169739
0.432251 0.146698 0.146698
0.504578 0.118683 0.118683
0.576141 0.080627 0.080627
0.647400 0.013153 0.013153
0.718414 0.000000 0.000000
0.789398 0.000000 0.000000
0.860321 0.000000 0.000000
0.931244 0.000000 0.000000
1.000000 0.000000 0.000000
1.000000 0.000000 0.000000
0.000000 0.276123 0.193481
0.000000 0.278442 0.190125
0.025116 0.280518 0.180450
0.153412 0.279205 0.153412
0.273712 0.273712 0.142517
0.350342 0.258209 0.149567
0.425903 0.242950 0.123169
0.499451 0.226227 0.089050
0.571899 0.207581 0.033417
0.643768 0.185913 0.000000
0.715302 0.159332 0.000000
0.786652 0.124146 0.000000
0.857880 0.069427 0.000000
0.929077 0.000000 0.000000
1.000000 0.000000 0.000000
1.000000 0.000000 0.000000
0.000000 0.344757 0.172668
0.000000 0.346588 0.165253
0.000000 0.348877 0.147949
0.104950 0.350006 0.104950
0.239990 0.346283 0.090454
0.341217 0.341217 0.067017
0.417816 0.326050 0.069397
0.492493 0.313812 0.026215
0.566132 0.300110 0.000000
0.638916 0.285278 0.000000
0.711121 0.268799 0.000000
0.782990 0.249786 0.000000
0.854614 0.227356 0.000000
0.926147 0.199829 0.000000
0.997559 0.164398 0.000000
1.000000 0.113647 0.000000
0.000000 0.413361 0.141663
0.000000 0.414825 0.129883
0.000000 0.416901 0.102448
0.018341 0.418762 0.018341
0.206726 0.415955 0.000000
0.314240 0.412170 0.000000
0.407318 0.407318 0.000000
0.484253 0.393829 0.000000
0.558716 0.383148 0.000000
0.632660 0.371246 0.000000
0.705719 0.358582 0.000000
0.778290 0.344696 0.000000
0.850464 0.329193 0.000000
0.922424 0.311493 0.000000
0.994202 0.291077 0.000000
1.000000 0.266937 0.000000
0.000000 0.482025 0.090118
0.000000 0.483154 0.068481
